!!!COM: Vivaldi, Antonio
!!!OTL: Concerto a violino solo, No. 9
!!!XEN: Violin Concerto No. 9 in D minor
!!!OPR: Il Cimento dell'armonia e dell'inventione
!!!XEN: The Contest of Harmony and Invention
!!!OPS: Opus 8
!!!ONM: No. 9
!!!OMV: Movement 3.
!!!YEC: Copyright 1996, Center for Computer Assisted Research in the Humanities
!!!YEM: Rights to all derivative electronic formats reserved.
!!!YEM: Refer to licensing agreement for important restrictions.
!!!OMD: Allegro
**kern	**kern	**kern	**kern	**kern	**kern	**Bnum
*Icello	*Iviola	*Ivioln	*Ivioln	*Ivioln	*Ioboe	*Icemba
*Icemba	*	*	*	*	*	*
*ICstr	*ICstr	*ICstr	*ICstr	*ICstr	*ICww	*ICklav
*ICklav	*	*	*	*	*	*
!cello	!viola 	!violino 2 	!violino 1	!violino principale	!oboe	!continuo
!basso continuo	!	!	!	!	!	!
*clefF4	*clefC3	*clefG2	*clefG2	*clefG2	*clefG2	*
*k[b-]	*k[b-]	*k[b-]	*k[b-]	*k[b-]	*k[b-]	*k[b-]
*d:	*d:	*d:	*d:	*d:	*d:	*d:
*M4/4	*M4/4	*M4/4	*M4/4	*M4/4	*M4/4	*M4/4
*>Selfridge-Field[etc1,S26,etc2,S27,etc3,S30,etc4]	*>Selfridge-Field[etc1,S26,etc2,S27,etc3,S30,etc4]	*>Selfridge-Field[etc1,S26,etc2,S27,etc3,S30,etc4]	*>Selfridge-Field[etc1,S26,etc2,S27,etc3,S30,etc4]	*>Selfridge-Field[etc1,S26,etc2,S27,etc3,S30,etc4]	*>Selfridge-Field[etc1,S26,etc2,S27,etc3,S30,etc4]	*>Selfridge-Field[etc1,S26,etc2,S27,etc3,S30,etc4]
*>Turin[etc1,S26,etc2,A27,etc3,S30,etc4]	*>Turin[etc1,S26,etc2,A27,etc3,S30,etc4]	*>Turin[etc1,S26,etc2,A27,etc3,S30,etc4]	*>Turin[etc1,S26,etc2,A27,etc3,S30,etc4]	*>Turin[etc1,S26,etc2,A27,etc3,S30,etc4]	*>Turin[etc1,S26,etc2,A27,etc3,S30,etc4]	*>Turin[etc1,S26,etc2,A27,etc3,S30,etc4]
*>Amsterdam[etc1,S26,etc2,S27,etc3,A30,etc4]	*>Amsterdam[etc1,S26,etc2,S27,etc3,A30,etc4]	*>Amsterdam[etc1,S26,etc2,S27,etc3,A30,etc4]	*>Amsterdam[etc1,S26,etc2,S27,etc3,A30,etc4]	*>Amsterdam[etc1,S26,etc2,S27,etc3,A30,etc4]	*>Amsterdam[etc1,S26,etc2,S27,etc3,A30,etc4]	*>Amsterdam[etc1,S26,etc2,S27,etc3,A30,etc4]
*>etc1	*>etc1	*>etc1	*>etc1	*>etc1	*>etc1	*>etc1
=1-	=1-	=1-	=1-	=1-	=1-	=1-
8D\L	4f\	4b-\	4b-\	4b-\	4b-\	.
8d\	.	.	.	.	.	.
8c#\	4e\	[4a/	[4a/	[4a/	[4a/	6
8A\J	.	.	.	.	.	.
8d\L	8f\L	8a\L]	8a\L]	8a\L]	8a\L]	.
8A\	8cc#\	8gg\	8gg\	8gg\	8gg\	7 #
8F\	8dd\	8ff\	8ff\	8ff\	8ff\	6
8C#\J	[8a\J	8ee\J	8ee\J	8ee\J	8ee\J	6 5
=2	=2	=2	=2	=2	=2	=2
8D\L	8a\L]	16ff\LL	16ff\LL	16ff\LL	16ff\LL	.
.	.	16ee\	16ee\	16ee\	16ee\	.
8A\	8e\	16dd\	16dd\	16dd\	16dd\	#
.	.	16cc#\JJ	16cc#\JJ	16cc#\JJ	16cc#\JJ	.
8F\	8a\	8dd\L	8dd\L	8dd\L	8dd\L	6
8C#\J	8e\J	8a\J	8a\J	8a\J	8a\J	6 5
8D\L	4f\	4b-\	4b-\	4b-\	4b-\	6
8d\	.	.	.	.	.	.
8c#\	4e\	[4a/	[4a/	[4a/	[4a/	6
8A\J	.	.	.	.	.	.
=3	=3	=3	=3	=3	=3	=3
8d\L	8f\L	8a\L]	8a\L]	8a\L]	8a\L]	.
8A\	8cc#\	8gg\	8gg\	8gg\	8gg\	7 #
8F\	8dd\	8ff\	8ff\	8ff\	8ff\	6
8C#\J	[8a\J	8ee\J	8ee\J	8ee\J	8ee\J	6 5
8D\L	8a\L]	16ff\LL	16ff\LL	16ff\LL	16ff\LL	.
.	.	16ee\	16ee\	16ee\	16ee\	.
8A\	8e\	16dd\	16dd\	16dd\	16dd\	#
.	.	16cc#\JJ	16cc#\JJ	16cc#\JJ	16cc#\JJ	.
8F\	8a\	8dd\L	8dd\L	8dd\L	8dd\L	6
8D\J	8f\J	8aa\J	8aa\J	8aa\J	8aa\J	.
=4	=4	=4	=4	=4	=4	=4
4G\	2d\	4.b-\	4.b-\	4.b-\	4.b-\	.
4BB-/	.	.	.	.	.	6
.	.	8gg#\	8gg#\	8gg#\	8gg#\	6\
2AA/	2c#\	8aa\L	8aa\L	8aa\L	8aa\L	#
.	.	8ee\	8ee\	8ee\	8ee\	.
.	.	8cc#\	8cc#\	8cc#\	8cc#\	.
.	.	8a\J	8a\J	8a\J	8a\J	.
=5	=5	=5	=5	=5	=5	=5
8D\L	4A/	2ff#\	2ff#\	2ff#\	2ff#\	#
8d\	.	.	.	.	.	.
8c\	4a\	.	.	.	.	4+ 2
8A\J	.	.	.	.	.	.
8B-\L	4.d\	(16gg\LL	(16gg\LL	(16gg\LL	(16gg\LL	6
.	.	16aa\JJ	16aa\JJ	16aa\JJ	16aa\JJ	.
8G\	.	4.bb-\)	4.bb-\)	4.bb-\)	4.bb-\)	.
8BB-\	.	.	.	.	.	6
8GG\J	8B-/	.	.	.	.	.
=6	=6	=6	=6	=6	=6	=6
8C\L	4G/	2ee\	2ee\	2ee\	2ee\	.
8c\	.	.	.	.	.	.
8B-\	4g\	.	.	.	.	4 2
8G\J	.	.	.	.	.	.
8A/L	4.c\	(16ff\LL	(16ff\LL	(16ff\LL	(16ff\LL	6
.	.	16gg\JJ	16gg\JJ	16gg\JJ	16gg\JJ	.
8F/	.	4.aa\)	4.aa\)	4.aa\)	4.aa\)	.
8AA/	.	.	.	.	.	6
8FF/J	8A/	.	.	.	.	.
=7	=7	=7	=7	=7	=7	=7
8BB-\L	4F/	2dd\	2dd\	2dd\	2dd\	.
8B-\	.	.	.	.	.	.
8A\	4f\	.	.	.	.	4 2
8F\J	.	.	.	.	.	.
8G/L	4.B-/	(16ee-\LL	(16ee-\LL	(16ee-\LL	(16ee-\LL	b6
.	.	16ff\JJ	16ff\JJ	16ff\JJ	16ff\JJ	.
8E-/	.	4.gg\)	4.gg\)	4.gg\)	4.gg\)	.
8BB-/	.	.	.	.	.	6
8GG/J	8g\	.	.	.	.	.
=8	=8	=8	=8	=8	=8	=8
8D\L	4f\	4b-\	4b-\	4b-\	4b-\	.
8d\	.	.	.	.	.	.
8c#\	4e\	[4a/	[4a/	[4a/	[4a/	6
8A\J	.	.	.	.	.	.
8d\L	8f\L	8a\L]	8a\L]	8a\L]	8a\L]	.
8A\	8cc#\	8gg\	8gg\	8gg\	8gg\	7 #
8F\	8dd\	8ff\	8ff\	8ff\	8ff\	6
8C#\J	8e\J	8ee\J	8ee\J	8ee\J	8ee\J	6 5
=9	=9	=9	=9	=9	=9	=9
8D\L	4f\	4b-\	4b-\	4b-\	4b-\	.
8d\	.	.	.	.	.	.
8c#\	4e\	[4a/	[4a/	[4a/	[4a/	6
8A\J	.	.	.	.	.	.
8d\L	8f\L	8a\L]	8a\L]	8a\L]	8a\L]	.
8A\	8cc#\	8gg\	8gg\	8gg\	8gg\	7 #
8F\	8dd\	8ff\	8ff\	8ff\	8ff\	6
8C#\J	[8a\J	8ee\J	8ee\J	8ee\J	8ee\J	6 5
=10	=10	=10	=10	=10	=10	=10
8D\L	8a\L]	16ff\LL	16ff\LL	16ff\LL	16ff\LL	.
.	.	16ee\	16ee\	16ee\	16ee\	.
8A\	8e\	16dd\	16dd\	16dd\	16dd\	#
.	.	16cc#\JJ	16cc#\JJ	16cc#\JJ	16cc#\JJ	.
8F\	8a\	8dd\L	8dd\L	8dd\L	8dd\L	6
8C#\J	8e\J	8a\J	8a\J	8a\J	8a\J	6 5
8D\L	8F/L	4f/	4f/	4f/	4f/	.
8E\	8G/	.	.	.	.	.
8F\	8A/	[4e/	[4e/	[4e/	[4e/	6
8G\J	8B-/J	.	.	.	.	.
=11	=11	=11	=11	=11	=11	=11
4A\	4.c#\	8e/L]	8e/L]	8e/L]	8e/L]	4
.	.	8g/	8g/	8g/	8g/	.
4AA/	.	8f/	8f/	8f/	8f/	#
.	8A/	8e/J	8e/J	8e/J	8e/J	.
8D\L	8F/L	4f/	4f/	4f/	4f/	.
8E\	8G/	.	.	.	.	.
8F\	8A/	[4e/	[4e/	[4e/	[4e/	6
8G\J	8B-/J	.	.	.	.	.
=12	=12	=12	=12	=12	=12	=12
4A\	4.c#\	8e/L]	8e/L]	8e/L]	8e/L]	4
.	.	8g/	8g/	8g/	8g/	.
4AA/	.	8f/	8f/	8f/	8f/	#
.	8B-/	8e/J	8e/J	8e/J	8e/J	.
8D\L	4A/	4d/	4d/	4d/	4d/	.
8E\	.	.	.	.	.	.
8F\	4r	4r	4r	8r	8r	.
8E\J	.	.	.	8a/	8a/	.
=13	=13	=13	=13	=13	=13	=13
8D\	1r	1r	1r	16dd\LL	16dd\LL	.
.	.	.	.	16cc#\	16cc#\	.
4d\	.	.	.	16dd\	16dd\	.
.	.	.	.	16ff\JJ	16ff\JJ	.
.	.	.	.	16ee\LL	16ee\LL	.
.	.	.	.	16dd\	16dd\	.
8c#\	.	.	.	16ee\	16ee\	6 5
.	.	.	.	16gg\JJ	16gg\JJ	.
8d\	.	.	.	16ff\LL	16ff\LL	.
.	.	.	.	16ee\	16ee\	.
4D\	.	.	.	16ff\	16ff\	.
.	.	.	.	16aa\JJ	16aa\JJ	.
.	.	.	.	16gg\LL	16gg\LL	.
.	.	.	.	16ff\	16ff\	.
8E\	.	.	.	16gg\	16gg\	.
.	.	.	.	16bb-\JJ	16bb-\JJ	.
=14	=14	=14	=14	=14	=14	=14
4F\	1r	1r	1r	8aa\L	8aa\L	6
.	.	.	.	16gg\L	16gg\L	.
.	.	.	.	16ff\JJ	16ff\JJ	.
4G\	.	.	.	8ee\L	8ee\L	6 5
.	.	.	.	8dd\J	8dd\J	.
8A\L	.	.	.	8cc#\L	8cc#\L	#
8G\	.	.	.	8bn\	8bn\	.
8F\	.	.	.	8a\	8a\	6
8E\J	.	.	.	8a\J	8a\J	.
=15	=15	=15	=15	=15	=15	=15
8D\	1r	1r	1r	16dd\LL	16dd\LL	.
.	.	.	.	16cc#\	16cc#\	.
4d\	.	.	.	16dd\	16dd\	.
.	.	.	.	16ff\JJ	16ff\JJ	.
.	.	.	.	16ee\LL	16ee\LL	.
.	.	.	.	16dd\	16dd\	.
8c#\	.	.	.	16ee\	16ee\	6 5
.	.	.	.	16gg\JJ	16gg\JJ	.
8d\	.	.	.	16ff\LL	16ff\LL	.
.	.	.	.	16ee\	16ee\	.
4D\	.	.	.	16ff\	16ff\	.
.	.	.	.	16aa\JJ	16aa\JJ	.
.	.	.	.	16gg\LL	16gg\LL	.
.	.	.	.	16ff\	16ff\	.
8E\	.	.	.	16gg\	16gg\	.
.	.	.	.	16bb-\JJ	16bb-\JJ	.
=16	=16	=16	=16	=16	=16	=16
4F\	1r	1r	1r	8aa\L	8aa\L	6
.	.	.	.	16gg\L	16gg\L	.
.	.	.	.	16ff\JJ	16ff\JJ	.
4G\	.	.	.	8ee\L	8ee\L	6 5
.	.	.	.	8dd\J	8dd\J	.
8A\L	.	.	.	4cc#\	4cc#\	#
8G\	.	.	.	.	.	.
8F\	.	.	.	8r	8r	.
8E\J	.	.	.	8aa\	8aa\	.
=17	=17	=17	=17	=17	=17	=17
8D\	1r	1r	1r	16ff#\LL	16ff#\LL	#
.	.	.	.	16ee\	16ee\	.
4d\	.	.	.	16ff#\	16ff#\	.
.	.	.	.	16aa\JJ	16aa\JJ	.
.	.	.	.	16ff#\LL	16ff#\LL	.
.	.	.	.	16ee\	16ee\	.
8c\	.	.	.	16ff#\	16ff#\	4+ 2
.	.	.	.	16aa\JJ	16aa\JJ	.
4B-\	.	.	.	16gg\LL	16gg\LL	6
.	.	.	.	16ff#\	16ff#\	.
.	.	.	.	16gg\	16gg\	.
.	.	.	.	16bb-\JJ	16bb-\JJ	.
4r	.	.	.	16gg\LL	16gg\LL	.
.	.	.	.	16ff#\	16ff#\	.
.	.	.	.	16gg\	16gg\	.
.	.	.	.	16bb-\JJ	16bb-\JJ	.
=18	=18	=18	=18	=18	=18	=18
8C/	1r	1r	1r	16ee\LL	16ee\LL	.
.	.	.	.	16dd\	16dd\	.
4c\	.	.	.	16ee\	16ee\	.
.	.	.	.	16gg\JJ	16gg\JJ	.
.	.	.	.	16ee\LL	16ee\LL	.
.	.	.	.	16dd\	16dd\	.
8B-\	.	.	.	16ee\	16ee\	4 2
.	.	.	.	16gg\JJ	16gg\JJ	.
4A\	.	.	.	16ff\LL	16ff\LL	6
.	.	.	.	16ee\	16ee\	.
.	.	.	.	16ff\	16ff\	.
.	.	.	.	16aa\JJ	16aa\JJ	.
4r	.	.	.	16ff\LL	16ff\LL	.
.	.	.	.	16ee\	16ee\	.
.	.	.	.	16ff\	16ff\	.
.	.	.	.	16aa\JJ	16aa\JJ	.
=19	=19	=19	=19	=19	=19	=19
8BB-/	1r	1r	1r	16dd\LL	16dd\LL	.
.	.	.	.	16cc#\	16cc#\	.
4B-\	.	.	.	16dd\	16dd\	.
.	.	.	.	16ff\JJ	16ff\JJ	.
.	.	.	.	16dd\LL	16dd\LL	.
.	.	.	.	16cc#\	16cc#\	.
8A\	.	.	.	16dd\	16dd\	4 2
.	.	.	.	16ff\JJ	16ff\JJ	.
4G\	.	.	.	16ee-\LL	16ee-\LL	b6
.	.	.	.	16dd\	16dd\	.
.	.	.	.	16ee-\	16ee-\	.
.	.	.	.	16gg\JJ	16gg\JJ	.
4r	.	.	.	16ee-\LL	16ee-\LL	.
.	.	.	.	16dd\	16dd\	.
.	.	.	.	16ee-\	16ee-\	.
.	.	.	.	16gg\JJ	16gg\JJ	.
=20	=20	=20	=20	=20	=20	=20
8A\L	1r	1r	1r	16cc#\LL	16cc#\LL	#
.	.	.	.	16bn\	16bn\	.
8G\	.	.	.	16cc#\	16cc#\	6 4+ 2
.	.	.	.	16ee\JJ	16ee\JJ	.
8F\	.	.	.	16dd\LL	16dd\LL	6
.	.	.	.	16cc#\	16cc#\	.
8D\J	.	.	.	16dd\	16dd\	.
.	.	.	.	16ff\JJ	16ff\JJ	.
8C#\L	.	.	.	16ee\LL	16ee\LL	6
.	.	.	.	16dd\	16dd\	.
8A\	.	.	.	16ee\	16ee\	.
.	.	.	.	16gg\JJ	16gg\JJ	.
8D\	.	.	.	16ff\LL	16ff\LL	.
.	.	.	.	16ee\	16ee\	.
8d\J	.	.	.	16ff\	16ff\	.
.	.	.	.	16aa\JJ	16aa\JJ	.
=21	=21	=21	=21	=21	=21	=21
4B-\	1r	1r	1r	16gg\LL	16gg\LL	6
.	.	.	.	16ff\	16ff\	.
.	.	.	.	16gg\	16gg\	.
.	.	.	.	16bb-\JJ	16bb-\JJ	.
4C#/	.	.	.	16aa\LL	16aa\LL	6 5
.	.	.	.	16gg\	16gg\	.
.	.	.	.	16ff\	16ff\	.
.	.	.	.	16ee\JJ	16ee\JJ	.
8D\L	.	.	.	8ff\L	8ff\L	.
8G\	.	.	.	16ee\L	16ee\L	.
.	.	.	.	16dd\JJ	16dd\JJ	.
8A\	.	.	.	8.cc#t\L	8.cc#t\L	#
8AA\J	.	.	.	.	.	.
.	.	.	.	16dd\Jk	16dd\Jk	.
=22	=22	=22	=22	=22	=22	=22
8D\L	4f\	4b-\	4b-\	4dd\	4dd\	.
8d\	.	.	.	.	.	.
8c#\	4e\	[4a/	[4a/	[4a/	[4a/	6
8A\J	.	.	.	.	.	.
8d\L	8f\L	8a\L]	8a\L]	8a\L]	8a\L]	.
8A\	8cc#\	8gg\	8gg\	8gg\	8gg\	7 #
8F\	8dd\	8ff\	8ff\	8ff\	8ff\	6
8C#\J	[8a\J	8ee\J	8ee\J	8ee\J	8ee\J	6 5
=23	=23	=23	=23	=23	=23	=23
8D\L	8a\L]	16ff\LL	16ff\LL	16ff\LL	16ff\LL	.
.	.	16ee\	16ee\	16ee\	16ee\	.
8A\	8e\	16dd\	16dd\	16dd\	16dd\	#
.	.	16cc#\JJ	16cc#\JJ	16cc#\JJ	16cc#\JJ	.
8F\	8a\	8dd\L	8dd\L	8dd\L	8dd\L	6
8C#\J	8e\J	8a\J	8a\J	8a\J	8a\J	6 5
8D\L	4f\	4b-\	4b-\	4b-\	4b-\	6
8d\	.	.	.	.	.	.
8c#\	4e\	[4a/	[4a/	[4a/	[4a/	6
8A\J	.	.	.	.	.	.
=24	=24	=24	=24	=24	=24	=24
8d\L	8f\L	8a\L]	8a\L]	8a\L]	8a\L]	.
8A\	8cc#\	8gg\	8gg\	8gg\	8gg\	.
8F\	8dd\	8ff\	8ff\	8ff\	8ff\	6
8C#\J	[8a\J	8ee\J	8ee\J	8ee\J	8ee\J	6 5
8D\L	8a\L]	16ff\LL	16ff\LL	16ff\LL	16ff\LL	.
.	.	16ee\	16ee\	16ee\	16ee\	.
8A\	8e\	16dd\	16dd\	16dd\	16dd\	7 #
.	.	16cc#\JJ	16cc#\JJ	16cc#\JJ	16cc#\JJ	.
8F\	8a\	8dd\L	8dd\L	8dd\L	8dd\L	6
8D\J	8f\J	8aa\J	8aa\J	8aa\J	8aa\J	.
=25	=25	=25	=25	=25	=25	=25
4G\	2d\	4.b-\	4.b-\	4.b-\	4.b-\	.
4BB-/	.	.	.	.	.	6
.	.	8gg#\	8gg#\	8gg#\	8gg#\	6\
2AA/	2c#\	8aa\L	8aa\L	8aa\L	8aa\L	#
.	.	8ee\	8ee\	8ee\	8ee\	.
.	.	8cc#\	8cc#\	8cc#\	8cc#\	.
.	.	8a\J	8a\J	8a\J	8a\J	.
=26	=26	=26	=26	=26	=26	=26
1r	8r	8r	8r	8cc#\L	8cc#\L	.
.	8a\L	8a/L	8a/L	[8aa\J	[8aa\J	.
.	8cc#\	8cc#/	8cc#/	16aa\LL]	16aa\LL]	.
.	.	.	.	16gg\	16gg\	.
.	8a\J	8a/J	8a/J	16ff#\	16ff#\	.
.	.	.	.	16ee\JJ	16ee\JJ	.
.	8dd\L	8dd/L	8dd/L	16ff#\LL	16ff#\LL	.
.	.	.	.	16gg\J	16gg\J	.
.	8f#\	8f#/	8f#/	8aa\J	8aa\J	.
*>S26	*>S26	*>S26	*>S26	*>S26	*>S26	*>S26
!! Selfridge-Field edition.
.	8a\	8a/	8a/	8ccn\L	8ccn\L	.
.	8f#\J	8f#/J	8f#/J	8a\J	8a\J	.
*>A26	*>A26	*>A26	*>A26	*>A26	*>A26	*>A26
!! Amsterdam print.
.	8a\	8a/	8a/	8cc#x\L	8cc#x\L	.
.	8f#\J	8f#/J	8f#/J	8a\J	8a\J	.
*>etc2	*>etc2	*>etc2	*>etc2	*>etc2	*>etc2	*>etc2
=27	=27	=27	=27	=27	=27	=27
1r	8r	8r	8r	8bn\L	8bn\L	.
.	8g\L	8g/L	8g/L	[8gg\J	[8gg\J	.
.	8bn\	8bn/	8bn/	16gg\LL]	16gg\LL]	.
.	.	.	.	16ff\	16ff\	.
.	8g\J	8g/J	8g/J	16ee\	16ee\	.
.	.	.	.	16dd\JJ	16dd\JJ	.
.	8cc\L	8cc/L	8cc/L	16ee\LL	16ee\LL	.
.	.	.	.	16ff\J	16ff\J	.
.	8e\	8e/	8e/	8gg\J	8gg\J	.
*>S27	*>S27	*>S27	*>S27	*>S27	*>S27	*>S27
!! Selfridge-Field edition.
.	8g\	8g/	8g/	8b-/L	8b-/L	.
*>A27	*>A27	*>A27	*>A27	*>A27	*>A27	*>A27
!! Amsterdam print.
.	8g\	8g/	8g/	8b/L	8b/L	.
*>etc3	*>etc3	*>etc3	*>etc3	*>etc3	*>etc3	*>etc3
.	8e\J	8e/J	8e/J	8g/J	8g/J	.
=28	=28	=28	=28	=28	=28	=28
1r	8r	8r	8r	8a\L	8a\L	.
.	8f\L	8f/L	8f/L	[8ff\J	[8ff\J	.
.	8a\	8a/	8a/	16ff\LL]	16ff\LL]	.
.	.	.	.	16ee\	16ee\	.
.	8f\J	8f/J	8f/J	16dd\	16dd\	.
.	.	.	.	16cc\JJ	16cc\JJ	.
.	8r	8r	8r	8bn\L	8bn\L	.
.	8d\L	8d/L	8d/L	[8dd\J	[8dd\J	.
.	8f\	8f/	8f/	16dd\LL]	16dd\LL]	.
.	.	.	.	16cc\	16cc\	.
.	8d\J	8d/J	8d/J	16b\	16b\	.
.	.	.	.	16a\JJ	16a\JJ	.
=29	=29	=29	=29	=29	=29	=29
1r	8r	8r	8r	8g#\L	8g#\L	.
.	8e\L	8e/L	8e/L	[8ee\J	[8ee\J	.
.	8g#\	8g#/	8g#/	16ee\LL]	16ee\LL]	.
.	.	.	.	16dd\	16dd\	.
.	8e\J	8e/J	8e/J	16cc\	16cc\	.
.	.	.	.	16bn\JJ	16bn\JJ	.
.	8A\L	8A/L	8A/L	(16cc\LL	(16cc\LL	.
.	.	.	.	16b\	16b\	.
.	8a\	8a/	8a/	16cc\)	16cc\)	.
.	.	.	.	16ee\JJ	16ee\JJ	.
.	8f\	8f/	8f/	(16dd\LL	(16dd\LL	.
.	.	.	.	16cc\	16cc\	.
.	8d\J	8d/J	8d/J	16dd\)	16dd\)	.
.	.	.	.	16ff\JJ	16ff\JJ	.
*>S30	*>S30	*>S30	*>S30	*>S30	*>S30	*>S30
!! Selfridge-Field edition.
=30	=30	=30	=30	=30	=30	=30
1r	8e\L	8e/L	8e/L	(16ee\LL	(16ee\LL	.
.	.	.	.	16dd\	16dd\	.
.	8g#\	8g#/	8g#/	16ee\)	16ee\)	.
.	.	.	.	16ff\JJ	16ff\JJ	.
.	8bn\	8bn/	8bn/	(16dd\LL	(16dd\LL	.
.	.	.	.	16cc\	16cc\	.
.	8e\J	8e/J	8e/J	16dd\)	16dd\)	.
.	.	.	.	16ee\JJ	16ee\JJ	.
.	8A\L	8A/L	8A/L	(16cc\LL	(16cc\LL	.
.	.	.	.	16bn\	16bn\	.
.	8a\	8a/	8a/	16cc\)	16cc\)	.
.	.	.	.	16ee\JJ	16ee\JJ	.
.	8f\	8f/	8f/	(16dd\LL	(16dd\LL	.
.	.	.	.	16cc\	16cc\	.
.	8d\J	8d/J	8d/J	16dd\)	16dd\)	.
.	.	.	.	16ff\JJ	16ff\JJ	.
=31	=31	=31	=31	=31	=31	=31
1r	8e\L	8e/L	8e/L	(16ee\LL	(16ee\LL	.
.	.	.	.	16dd\	16dd\	.
.	8g#\	8g#/	8g#/	16ee\)	16ee\)	.
.	.	.	.	16ff\JJ	16ff\JJ	.
.	8bn\	8bn/	8bn/	(16dd\LL	(16dd\LL	.
.	.	.	.	16cc\	16cc\	.
.	8e\J	8e/J	8e/J	16dd\)	16dd\)	.
.	.	.	.	16ee\JJ	16ee\JJ	.
.	4a\	4a/	4a/	16cc\LL	16cc\LL	.
.	.	.	.	16a\	16a\	.
.	.	.	.	16a\	16a\	.
.	.	.	.	16bn\JJ	16bn\JJ	.
.	8e\L	8e/L	8e/L	16b\LL	16b\LL	.
.	.	.	.	16cc\	16cc\	.
.	8a\J	8a/J	8a/J	16cc\	16cc\	.
.	.	.	.	16dd\JJ	16dd\JJ	.
*>A30	*>A30	*>A30	*>A30	*>A30	*>A30	*>A30
!! Amsterdam print.
=30	=30	=30	=30	=30	=30	=30
1r	8g#\L	8g#/L	8g#/L	(16ee\LL	(16ee\LL	.
.	.	.	.	16dd\	16dd\	.
.	8g#\	8g#/	8g#/	16ee\)	16ee\)	.
.	.	.	.	16ff\JJ	16ff\JJ	.
.	8bn\	8bn/	8bn/	(16dd\LL	(16dd\LL	.
.	.	.	.	16cc\	16cc\	.
.	8g#\J	8g#/J	8g#/J	16dd\)	16dd\)	.
.	.	.	.	16ee\JJ	16ee\JJ	.
.	8A\L	8A/L	8A/L	(16cc\LL	(16cc\LL	.
.	.	.	.	16bn\	16bn\	.
.	8a\	8a/	8a/	16cc\)	16cc\)	.
.	.	.	.	16ee\JJ	16ee\JJ	.
.	8f\	8f/	8f/	(16dd\LL	(16dd\LL	.
.	.	.	.	16cc\	16cc\	.
.	8d\J	8d/J	8d/J	16dd\)	16dd\)	.
.	.	.	.	16ff\JJ	16ff\JJ	.
=31	=31	=31	=31	=31	=31	=31
1r	8g#\L	8g#/L	8g#/L	(16ee\LL	(16ee\LL	.
.	.	.	.	16dd\	16dd\	.
.	8g#\	8g#/	8g#/	16ee\)	16ee\)	.
.	.	.	.	16ff\JJ	16ff\JJ	.
.	8bn\	8bn/	8bn/	(16dd\LL	(16dd\LL	.
.	.	.	.	16cc\	16cc\	.
.	8g#\J	8g#/J	8g#/J	16dd\)	16dd\)	.
.	.	.	.	16ee\JJ	16ee\JJ	.
.	4a\	4a/	4a/	16cc\LL	16cc\LL	.
.	.	.	.	16a\	16a\	.
.	.	.	.	16a\	16a\	.
.	.	.	.	16bn\JJ	16bn\JJ	.
.	8e\L	8e/L	8e/L	16b\LL	16b\LL	.
.	.	.	.	16cc\	16cc\	.
.	8a\J	8a/J	8a/J	16cc\	16cc\	.
.	.	.	.	16dd\JJ	16dd\JJ	.
*>etc4	*>etc4	*>etc4	*>etc4	*>etc4	*>etc4	*>etc4
=32	=32	=32	=32	=32	=32	=32
1r	8bn\L	8bn\L	8bn\L	16dd\LL	16dd\LL	.
.	.	.	.	16ee\	16ee\	.
.	8cc\	8cc\	8cc\	16ee\	16ee\	.
.	.	.	.	16ff#\JJ	16ff#\JJ	.
.	8dd\	8dd\	8dd\	16ff#\LL	16ff#\LL	.
.	.	.	.	16gg\	16gg\	.
.	8ee\J	8ee\J	8ee\J	16gg\	16gg\	.
.	.	.	.	16aa\JJ	16aa\JJ	.
.	8cc\L	8cc\L	8cc\L	16aa\LL	16aa\LL	.
.	.	.	.	16ee\	16ee\	.
.	8a\J	8a\J	8a\J	16dd\	16dd\	.
.	.	.	.	16cc\JJ	16cc\JJ	.
.	4e\	4e/	4e/	8.bnt/L	8.bnt/L	.
.	.	.	.	16a/Jk	16a/Jk	.
=33	=33	=33	=33	=33	=33	=33
8AA\L	4c\	4ff\	4ff\	4a/	4a/	.
8A\	.	.	.	.	.	.
8G#\	4Bn/	[4ee\	[4ee\	[4ee\	[4ee\	6
8E\J	.	.	.	.	.	.
8A/L	8c\L	8ee\L]	8ee\L]	8ee\L]	8ee\L]	.
8E/	8g#\	8ddd\	8ddd\	8ddd\	8ddd\	7 #
8C/	8a\	8ccc\	8ccc\	8ccc\	8ccc\	6
8GG#/J	[8e\J	8bbn\J	8bbn\J	8bbn\J	8bbn\J	6 5
=34	=34	=34	=34	=34	=34	=34
8AA/L	8e\L]	16ccc\LL	16ccc\LL	16ccc\LL	16ccc\LL	.
.	.	16bbn\	16bbn\	16bbn\	16bbn\	.
8E/	8B\	16aa\	16aa\	16aa\	16aa\	#
.	.	16gg#\JJ	16gg#\JJ	16gg#\JJ	16gg#\JJ	.
8C/	8e\	8aa\L	8aa\L	8aa\L	8aa\L	6
8GG#/J	8Bn\J	8ee\J	8ee\J	8ee\J	8ee\J	6 5
8AA\L	4c\	4ff\	4ff\	4ff\	4ff\	6
8A\	.	.	.	.	.	.
8G#\	[4B/	[4ee\	[4ee\	[4ee\	[4ee\	6
8E\J	.	.	.	.	.	.
=35	=35	=35	=35	=35	=35	=35
8A/L	8B\L]	8ee\L]	8ee\L]	8ee\L]	8ee\L]	.
8E/	8g#\	8ddd\	8ddd\	8ddd\	8ddd\	7 #
8C/	8a\	8ccc\	8ccc\	8ccc\	8ccc\	6
8GG#/J	[8e\J	8bbn\J	8bbn\J	8bbn\J	8bbn\J	6
8AA/L	8e\L]	16ccc\LL	16ccc\LL	16ccc\LL	16ccc\LL	.
.	.	16bb\	16bb\	16bb\	16bb\	.
8E/	8Bn\	16aa\	16aa\	16aa\	16aa\	#
.	.	16gg#\JJ	16gg#\JJ	16gg#\JJ	16gg#\JJ	.
8C/	8e\	8aa\L	8aa\L	8aa\L	8aa\L	6
8AA/J	8B\J	8ee\J	8ee\J	8ee\J	8ee\J	.
=36	=36	=36	=36	=36	=36	=36
2F\	4c\	4.a/	4.a/	4.a/	4.a/	6\
.	4a\	.	.	.	.	.
.	.	8dd#\	8dd#\	8dd#\	8dd#\	.
2E\	2g#\	8ee/L	8ee/L	8ee/L	8ee/L	#
.	.	8bn/	8bn/	8bn/	8bn/	.
.	.	8g#/	8g#/	8g#/	8g#/	.
.	.	8e/J	8e/J	8e/J	8e/J	.
=37	=37	=37	=37	=37	=37	=37
8AA/L	8c\L	4cc\	4cc\	4cc\	4cc\	.
8BBn/	8d\	.	.	.	.	.
8C/	8e\	[4bn\	[4bn\	[4bn\	[4bn\	6
8D/J	8f\J	.	.	.	.	.
4E\	4.G#/	8b\L]	8b\L]	8b\L]	8b\L]	#
.	.	8dd\	8dd\	8dd\	8dd\	.
4EE/	.	8cc\	8cc\	8cc\	8cc\	.
.	8e\	8b\J	8b\J	8b\J	8b\J	.
=38	=38	=38	=38	=38	=38	=38
8AA/L	8c\L	4cc\	4cc\	4cc\	4cc\	.
8BBn/	8d\	.	.	.	.	.
8C/	8e\	[4bn\	[4bn\	[4bn\	[4bn\	6
8D/J	8f\J	.	.	.	.	.
4E\	4.G#/	8b\L]	8b\L]	8b\L]	8b\L]	#
.	.	8dd\	8dd\	8dd\	8dd\	.
4EE/	.	8cc\	8cc\	8cc\	8cc\	.
.	8e\	8b\J	8b\J	8b\J	8b\J	.
=39	=39	=39	=39	=39	=39	=39
4AA/	4c\	4a/	4a/	16a\LL	16a\LL	.
.	.	.	.	16bn\J	16bn\J	.
.	.	.	.	[8cc\J	[8cc\J	.
4AA/	4r	4r	4r	16cc\LL]	16cc\LL]	.
.	.	.	.	16dd\	16dd\	.
.	.	.	.	16ee\	16ee\	.
.	.	.	.	16ff\JJ	16ff\JJ	.
4AA/	2r	2r	2r	16ee\LL	16ee\LL	.
.	.	.	.	16dd\J	16dd\J	.
.	.	.	.	[8cc\J	[8cc\J	.
4E\	.	.	.	16cc/LL]	16cc/LL]	#
.	.	.	.	16b/	16b/	.
.	.	.	.	16a/	16a/	.
.	.	.	.	16g#/JJ	16g#/JJ	.
=40	=40	=40	=40	=40	=40	=40
4AA/	1r	1r	1r	16a\LL	16a\LL	.
.	.	.	.	16bn\J	16bn\J	.
.	.	.	.	[8cc\J	[8cc\J	.
4AA/	.	.	.	16cc\LL]	16cc\LL]	.
.	.	.	.	16dd\	16dd\	.
.	.	.	.	16ee\	16ee\	.
.	.	.	.	16ff\JJ	16ff\JJ	.
4AA/	.	.	.	16ee\LL	16ee\LL	.
.	.	.	.	16dd\	16dd\	.
.	.	.	.	16cc\	16cc\	.
.	.	.	.	16b\JJ	16b\JJ	.
4AA/	.	.	.	16a\LL	16a\LL	.
.	.	.	.	16b\	16b\	.
.	.	.	.	16cc\	16cc\	.
.	.	.	.	16dd\JJ	16dd\JJ	.
=41	=41	=41	=41	=41	=41	=41
8GG#/L	1r	1r	1r	4ee\	4ee\	6
8G#/	.	.	.	.	.	.
8A/	.	.	.	4r	4r	.
8AA/J	.	.	.	.	.	.
4c\	.	.	.	16cc\LL	16cc\LL	.
.	.	.	.	16dd\J	16dd\J	.
.	.	.	.	[8ee\J	[8ee\J	.
4c\	.	.	.	16ee\LL]	16ee\LL]	.
.	.	.	.	16ff\	16ff\	.
.	.	.	.	16gg\	16gg\	.
.	.	.	.	16aa\JJ	16aa\JJ	.
=42	=42	=42	=42	=42	=42	=42
4c\	1r	1r	1r	16gg\LL	16gg\LL	.
.	.	.	.	16ff\J	16ff\J	.
.	.	.	.	[8ee\J	[8ee\J	.
4G\	.	.	.	16ee\LL]	16ee\LL]	n
.	.	.	.	16dd\	16dd\	.
.	.	.	.	16cc\	16cc\	.
.	.	.	.	16bn\JJ	16bn\JJ	.
4c\	.	.	.	16cc\LL	16cc\LL	.
.	.	.	.	16dd\J	16dd\J	.
.	.	.	.	[8ee\J	[8ee\J	.
4c\	.	.	.	16ee\LL]	16ee\LL]	.
.	.	.	.	16ff\	16ff\	.
.	.	.	.	16gg\	16gg\	.
.	.	.	.	16aa\JJ	16aa\JJ	.
=43	=43	=43	=43	=43	=43	=43
4c\	1r	1r	1r	16gg\LL	16gg\LL	.
.	.	.	.	16ff\	16ff\	.
.	.	.	.	16ee\	16ee\	.
.	.	.	.	16dd\JJ	16dd\JJ	.
4c\	.	.	.	16cc\LL	16cc\LL	.
.	.	.	.	16dd\	16dd\	.
.	.	.	.	16ee\	16ee\	.
.	.	.	.	16ff\JJ	16ff\JJ	.
8Bn\L	.	.	.	4gg\	4gg\	6
8G\	.	.	.	.	.	.
8c\	.	.	.	4r	4r	.
8C\J	.	.	.	.	.	.
=44	=44	=44	=44	=44	=44	=44
4C/	1r	1r	1r	16ee\LL	16ee\LL	.
.	.	.	.	16ff\J	16ff\J	.
.	.	.	.	[8gg\J	[8gg\J	.
4E\	.	.	.	16gg\LL]	16gg\LL]	6
.	.	.	.	16aa\	16aa\	.
.	.	.	.	16bb-\	16bb-\	.
.	.	.	.	16ccc\JJ	16ccc\JJ	.
4F\	.	.	.	16aa\LL	16aa\LL	.
.	.	.	.	16gg\J	16gg\J	.
.	.	.	.	[8ff\J	[8ff\J	.
4A\	.	.	.	16ff\LL]	16ff\LL]	6
.	.	.	.	16ee\	16ee\	.
.	.	.	.	16dd\	16dd\	.
.	.	.	.	16cc\JJ	16cc\JJ	.
=45	=45	=45	=45	=45	=45	=45
4E\	1r	1r	1r	16gg\LL	16gg\LL	.
.	.	.	.	16ff\J	16ff\J	.
.	.	.	.	[8ee\J	[8ee\J	.
4G\	.	.	.	16ee\LL]	16ee\LL]	6
.	.	.	.	16dd\	16dd\	.
.	.	.	.	16cc\	16cc\	.
.	.	.	.	16b-\JJ	16b-\JJ	.
4D\	.	.	.	16ff\LL	16ff\LL	.
.	.	.	.	16ee\J	16ee\J	.
.	.	.	.	[8dd\J	[8dd\J	.
4F\	.	.	.	16dd\LL]	16dd\LL]	6
.	.	.	.	16cc\	16cc\	.
.	.	.	.	16b-\	16b-\	.
.	.	.	.	16a\JJ	16a\JJ	.
=46	=46	=46	=46	=46	=46	=46
4C/	1r	1r	1r	16ee\LL	16ee\LL	.
.	.	.	.	16dd\J	16dd\J	.
.	.	.	.	[8cc\J	[8cc\J	.
4C/	.	.	.	16cc/LL]	16cc/LL]	6
.	.	.	.	16b-/	16b-/	.
.	.	.	.	16a/	16a/	.
.	.	.	.	16g/JJ	16g/JJ	.
4BB-/	.	.	.	16dd\LL	16dd\LL	.
.	.	.	.	16cc\J	16cc\J	.
.	.	.	.	[8b-\J	[8b-\J	.
4BB-/	.	.	.	16b-/LL]	16b-/LL]	6
.	.	.	.	16a/	16a/	.
.	.	.	.	16g/	16g/	.
.	.	.	.	16f/JJ	16f/JJ	.
=47	=47	=47	=47	=47	=47	=47
4C/	1r	1r	1r	16e/LL	16e/LL	.
.	.	.	.	16c/	16c/	.
.	.	.	.	16e/	16e/	.
.	.	.	.	16g/JJ	16g/JJ	.
4C/	.	.	.	16e/LL	16e/LL	.
.	.	.	.	16c/	16c/	.
.	.	.	.	16e/	16e/	.
.	.	.	.	16g/JJ	16g/JJ	.
4F\	.	.	.	16f/LL	16f/LL	.
.	.	.	.	16c/	16c/	.
.	.	.	.	16f/	16f/	.
.	.	.	.	16a/JJ	16a/JJ	.
4F\	.	.	.	16f/LL	16f/LL	.
.	.	.	.	16c/	16c/	.
.	.	.	.	16f/	16f/	.
.	.	.	.	16a/JJ	16a/JJ	.
=48	=48	=48	=48	=48	=48	=48
4C/	1r	1r	1r	16g/LL	16g/LL	7
.	.	.	.	16e/	16e/	.
.	.	.	.	16g/	16g/	.
.	.	.	.	16b-/JJ	16b-/JJ	.
4C/	.	.	.	16g/LL	16g/LL	.
.	.	.	.	16e/	16e/	.
.	.	.	.	16g/	16g/	.
.	.	.	.	16b-/JJ	16b-/JJ	.
4F\	.	.	.	16a/LL	16a/LL	.
.	.	.	.	16f/	16f/	.
.	.	.	.	16a/	16a/	.
.	.	.	.	16cc/JJ	16cc/JJ	.
4F\	.	.	.	16a/LL	16a/LL	.
.	.	.	.	16f/	16f/	.
.	.	.	.	16a/	16a/	.
.	.	.	.	16cc/JJ	16cc/JJ	.
=49	=49	=49	=49	=49	=49	=49
4G\	1r	1r	1r	16b-\LL	16b-\LL	.
.	.	.	.	16g\	16g\	.
.	.	.	.	16b-\	16b-\	.
.	.	.	.	16dd\JJ	16dd\JJ	.
4G\	.	.	.	16b-\LL	16b-\LL	.
.	.	.	.	16g\	16g\	.
.	.	.	.	16b-\	16b-\	.
.	.	.	.	16dd\JJ	16dd\JJ	.
4A\	.	.	.	16cc\LL	16cc\LL	6 b5
.	.	.	.	16a\	16a\	.
.	.	.	.	16cc\	16cc\	.
.	.	.	.	16ee-\JJ	16ee-\JJ	.
4A\	.	.	.	16cc\LL	16cc\LL	.
.	.	.	.	16a\	16a\	.
.	.	.	.	16cc\	16cc\	.
.	.	.	.	16ee-\JJ	16ee-\JJ	.
=50	=50	=50	=50	=50	=50	=50
4B-\	1r	1r	1r	16dd\LL	16dd\LL	.
.	.	.	.	16b-\	16b-\	.
.	.	.	.	16dd\	16dd\	.
.	.	.	.	16ff\JJ	16ff\JJ	.
4B-\	.	.	.	16dd\LL	16dd\LL	.
.	.	.	.	16b-\	16b-\	.
.	.	.	.	16dd\	16dd\	.
.	.	.	.	16ff\JJ	16ff\JJ	.
4c\	.	.	.	16ee\LL	16ee\LL	.
.	.	.	.	16cc\	16cc\	.
.	.	.	.	16ee\	16ee\	.
.	.	.	.	16gg\JJ	16gg\JJ	.
4c\	.	.	.	16ee\LL	16ee\LL	.
.	.	.	.	16cc\	16cc\	.
.	.	.	.	16ee\	16ee\	.
.	.	.	.	16gg\JJ	16gg\JJ	.
=51	=51	=51	=51	=51	=51	=51
4F\	1r	1r	1r	16ff\LL	16ff\LL	.
.	.	.	.	16cc\	16cc\	.
.	.	.	.	16ff\	16ff\	.
.	.	.	.	16aa\JJ	16aa\JJ	.
4c\	.	.	.	16gg\LL	16gg\LL	.
.	.	.	.	16cc\	16cc\	.
.	.	.	.	16ee\	16ee\	.
.	.	.	.	16gg\JJ	16gg\JJ	.
4F\	.	.	.	16ff\LL	16ff\LL	.
.	.	.	.	16cc\	16cc\	.
.	.	.	.	16ff\	16ff\	.
.	.	.	.	16aa\JJ	16aa\JJ	.
4c\	.	.	.	16gg\LL	16gg\LL	.
.	.	.	.	16cc\	16cc\	.
.	.	.	.	16ee\	16ee\	.
.	.	.	.	16gg\JJ	16gg\JJ	.
=52	=52	=52	=52	=52	=52	=52
8F\L	2r	2r	2r	8aa\L	8aa\L	.
8B-\	.	.	.	16gg\L	16gg\L	6 5
.	.	.	.	16ff\JJ	16ff\JJ	.
8c\	.	.	.	8.eet\L	8.eet\L	.
8C\J	.	.	.	.	.	.
.	.	.	.	16ff\Jk	16ff\Jk	.
8FF/L	4a\	4dd\	4dd\	4ff\	4ff\	.
8F/	.	.	.	.	.	.
8E/	4g\	[4cc\	[4cc\	[4cc\	[4cc\	6
8C/J	.	.	.	.	.	.
=53	=53	=53	=53	=53	=53	=53
8F/L	8a\L	8cc\L]	8cc\L]	8cc\L]	8cc\L]	.
8C/	8e\	8bb-\	8bb-\	8bb-\	8bb-\	7
8AA/	8f\	8aa\	8aa\	8aa\	8aa\	6
8EE/J	[8cc\J	8gg\J	8gg\J	8gg\J	8gg\J	.
8FF/L	8cc\L]	16aa\LL	16aa\LL	16aa\LL	16aa\LL	.
.	.	16gg\	16gg\	16gg\	16gg\	.
8C/	8g\	16ff\	16ff\	16ff\	16ff\	.
.	.	16ee\JJ	16ee\JJ	16ee\JJ	16ee\JJ	.
8AA/	8cc\	8ff\L	8ff\L	8ff\L	8ff\L	6
8EE/J	8g\J	8cc\J	8cc\J	8cc\J	8cc\J	6
=54	=54	=54	=54	=54	=54	=54
8FF/L	4a\	4dd\	4dd\	4dd\	4dd\	6
8F/	.	.	.	.	.	.
8E/	4g\	[4cc\	[4cc\	[4cc\	[4cc\	6
8C/J	.	.	.	.	.	.
8F/L	8a\L	8cc\L]	8cc\L]	8cc\L]	8cc\L]	.
8C/	8e\	8bb-\	8bb-\	8bb-\	8bb-\	7
8AA/	8f\	8aa\	8aa\	8aa\	8aa\	6
8EE/J	[8cc\J	8gg\J	8gg\J	8gg\J	8gg\J	6
=55	=55	=55	=55	=55	=55	=55
8FF/L	8cc\L]	16aa\LL	16aa\LL	16aa\LL	16aa\LL	.
.	.	16gg\	16gg\	16gg\	16gg\	.
8C/	8g\	16ff\	16ff\	16ff\	16ff\	.
.	.	16ee\JJ	16ee\JJ	16ee\JJ	16ee\JJ	.
8AA/	8cc\	8ff\L	8ff\L	8ff\L	8ff\L	6
8F/J	8a\J	8cc\J	8cc\J	8cc\J	8cc\J	.
8F\L	8a\L	4aa\	4aa\	4aa\	4aa\	.
8G\	8b-\	.	.	.	.	.
8A\	8cc\	[4gg\	[4gg\	[4gg\	[4gg\	6
8B-\J	8dd\J	.	.	.	.	.
=56	=56	=56	=56	=56	=56	=56
4c\	4.e\	8gg\L]	8gg\L]	8gg\L]	8gg\L]	.
.	.	8bb-\	8bb-\	8bb-\	8bb-\	.
4C/	.	8aa\	8aa\	8aa\	8aa\	.
.	8cc\	8gg\J	8gg\J	8gg\J	8gg\J	.
8F\L	8a\L	4aa\	4aa\	4aa\	4aa\	.
8G\	8b-\	.	.	.	.	.
8A\	8cc\	[4gg\	[4gg\	[4gg\	[4gg\	6
8B-\J	8dd\J	.	.	.	.	.
=57	=57	=57	=57	=57	=57	=57
4c\	4.e\	8gg\L]	8gg\L]	8gg\L]	8gg\L]	.
.	.	8bb-\	8bb-\	8bb-\	8bb-\	.
4C/	.	8aa\	8aa\	8aa\	8aa\	.
.	8cc\	8gg\J	8gg\J	8gg\J	8gg\J	.
4FF/	8a\L	8ff/L	8ff/L	8ff\	8ff\	.
.	16f\L	16f/L	16f/L	4cc\	4cc\	.
.	16g\JJ	16g/JJ	16g/JJ	.	.	.
4r	8a\L	8a/L	8a/L	.	.	.
.	8g\J	8g/J	8g/J	[8ff\	[8ff\	.
=58	=58	=58	=58	=58	=58	=58
1r	8f\L	8f/L	8f/L	8ff\]	8ff\]	.
.	16f\L	16f/L	16f/L	4ee-\	4ee-\	.
.	16g\JJ	16g/JJ	16g/JJ	.	.	.
.	8a\L	8a/L	8a/L	.	.	.
.	8f\J	8f/J	8f/J	16dd\LL	16dd\LL	.
.	.	.	.	16cc\JJ	16cc\JJ	.
.	8B-/L	8B-/L	8B-/L	8dd\	8dd\	.
.	16B-/L	16B-/L	16B-/L	4b-\	4b-\	.
.	16c/JJ	16c/JJ	16c/JJ	.	.	.
.	8d\L	8d/L	8d/L	.	.	.
.	8c\J	8c/J	8c/J	[8dd\	[8dd\	.
=59	=59	=59	=59	=59	=59	=59
1r	8B-/L	8B-/L	8B-/L	8dd\]	8dd\]	.
.	16B-/L	16B-/L	16B-/L	4ff\	4ff\	.
.	16c/JJ	16c/JJ	16c/JJ	.	.	.
.	8d\L	8d/L	8d/L	.	.	.
.	8c\J	8c/J	8c/J	16ee\LL	16ee\LL	.
.	.	.	.	16dd\JJ	16dd\JJ	.
.	8Bn/L	8Bn/L	8Bn/L	8gg\	8gg\	.
.	16B/L	16B/L	16B/L	4dd\	4dd\	.
.	16c/JJ	16c/JJ	16c/JJ	.	.	.
.	8d\L	8d/L	8d/L	.	.	.
.	8c\J	8c/J	8c/J	[8gg\	[8gg\	.
=60	=60	=60	=60	=60	=60	=60
1r	8Bn/L	8Bn/L	8Bn/L	8gg\]	8gg\]	.
.	16B/L	16B/L	16B/L	4ff\	4ff\	.
.	16c/JJ	16c/JJ	16c/JJ	.	.	.
.	8d\L	8d/L	8d/L	.	.	.
.	8B\J	8B/J	8B/J	16ee\LL	16ee\LL	.
.	.	.	.	16dd\JJ	16dd\JJ	.
.	8c\L	8c/L	8c/L	8ee\	8ee\	.
.	16c\L	16c/L	16c/L	4cc\	4cc\	.
.	16d\JJ	16d/JJ	16d/JJ	.	.	.
.	8e\L	8e/L	8e/L	.	.	.
.	8d\J	8d/J	8d/J	[8ee\	[8ee\	.
=61	=61	=61	=61	=61	=61	=61
1r	8c\L	8c/L	8c/L	8ee\]	8ee\]	.
.	16c\L	16c/L	16c/L	4gg\	4gg\	.
.	16d\JJ	16d/JJ	16d/JJ	.	.	.
.	8e\L	8e/L	8e/L	.	.	.
.	8d\J	8d/J	8d/J	16ff\LL	16ff\LL	.
.	.	.	.	16ee\JJ	16ee\JJ	.
.	8c#\L	8c#/L	8c#/L	8aa\	8aa\	.
.	16c#\L	16c#/L	16c#/L	4ee\	4ee\	.
.	16d\JJ	16d/JJ	16d/JJ	.	.	.
.	8e\L	8e/L	8e/L	.	.	.
.	8d\J	8d/J	8d/J	[8aa\	[8aa\	.
=62	=62	=62	=62	=62	=62	=62
1r	8c#\L	8c#/L	8c#/L	8aa\]	8aa\]	.
.	16c#\L	16c#/L	16c#/L	4gg\	4gg\	.
.	16d\JJ	16d/JJ	16d/JJ	.	.	.
.	8e\L	8e/L	8e/L	.	.	.
.	8c#\J	8c#/J	8c#/J	16ff\LL	16ff\LL	.
.	.	.	.	16ee\JJ	16ee\JJ	.
.	8d\L	8d/L	8d/L	8ff\	8ff\	.
.	16d\L	16d/L	16d/L	4dd\	4dd\	.
.	16e\JJ	16e/JJ	16e/JJ	.	.	.
.	8f\L	8f/L	8f/L	.	.	.
.	8e\J	8e/J	8e/J	[8ff\	[8ff\	.
=63	=63	=63	=63	=63	=63	=63
1r	8d\L	8d/L	8d/L	8ff\]	8ff\]	.
.	16d\L	16d/L	16d/L	4aa\	4aa\	.
.	16e\JJ	16e/JJ	16e/JJ	.	.	.
.	8f\L	8f/L	8f/L	.	.	.
.	8d\J	8d/J	8d/J	16gg\LL	16gg\LL	.
.	.	.	.	16ff\JJ	16ff\JJ	.
.	8c#\L	8c#/L	8c#/L	8aa\	8aa\	.
.	16c#\L	16c#/L	16c#/L	4ee\	4ee\	.
.	16d\JJ	16d/JJ	16d/JJ	.	.	.
.	8e\L	8e/L	8e/L	.	.	.
.	8d\J	8d/J	8d/J	[8aa\	[8aa\	.
=64	=64	=64	=64	=64	=64	=64
2r	8c#\L	8c#/L	8c#/L	8aa\]	8aa\]	.
.	16c#\L	16c#/L	16c#/L	4gg\	4gg\	.
.	16d\JJ	16d/JJ	16d/JJ	.	.	.
.	8e\L	8e/L	8e/L	.	.	.
.	8c#\J	8c#/J	8c#/J	16ff\LL	16ff\LL	.
.	.	.	.	16ee\JJ	16ee\JJ	.
8D\L	4f\	4b-\	4b-\	4ff\	4ff\	.
8d\	.	.	.	.	.	.
8c#\	4e\	[4a/	[4a/	[4a/	[4a/	6
8A\J	.	.	.	.	.	.
=65	=65	=65	=65	=65	=65	=65
8d\L	8f\L	8a\L]	8a\L]	8a\L]	8a\L]	.
8A\	8cc#\	8gg\	8gg\	8gg\	8gg\	7 #
8F\	8dd\	8ff\	8ff\	8ff\	8ff\	6
8C#\J	[8a\J	8ee\J	8ee\J	8ee\J	8ee\J	6 5
8D/L	8a\L]	8ff\L	8ff\L	8ff\L	8ff\L	.
8DD/J	8a\J	8dd\J	8dd\J	8dd\J	8dd\J	.
4r	4r	4r	4r	16dd\LL	16dd\LL	.
.	.	.	.	16ee\	16ee\	.
.	.	.	.	16ff\	16ff\	.
.	.	.	.	16gg\JJ	16gg\JJ	.
=66	=66	=66	=66	=66	=66	=66
4D\	1r	1r	1r	16aa\LL	16aa\LL	.
.	.	.	.	16gg\	16gg\	.
.	.	.	.	16ff\	16ff\	.
.	.	.	.	16ee\JJ	16ee\JJ	.
4r	.	.	.	16dd\LL	16dd\LL	.
.	.	.	.	16ee\	16ee\	.
.	.	.	.	16ff\	16ff\	.
.	.	.	.	16gg\JJ	16gg\JJ	.
4D\	.	.	.	16aa\LL	16aa\LL	.
.	.	.	.	16gg\	16gg\	.
.	.	.	.	16ff\	16ff\	.
.	.	.	.	16ee\JJ	16ee\JJ	.
4r	.	.	.	16dd\LL	16dd\LL	.
.	.	.	.	16ee\	16ee\	.
.	.	.	.	16ff\	16ff\	.
.	.	.	.	16gg\JJ	16gg\JJ	.
=67	=67	=67	=67	=67	=67	=67
4D\	1r	1r	1r	16aa\LL	16aa\LL	.
.	.	.	.	16gg\	16gg\	.
.	.	.	.	16ff\	16ff\	.
.	.	.	.	16ee\JJ	16ee\JJ	.
4r	.	.	.	16dd\LL	16dd\LL	.
.	.	.	.	16ee\	16ee\	.
.	.	.	.	16ff\	16ff\	.
.	.	.	.	16dd\JJ	16dd\JJ	.
4G\	.	.	.	16bb-\LL	16bb-\LL	.
.	.	.	.	16aa\	16aa\	.
.	.	.	.	16gg\	16gg\	.
.	.	.	.	16ff\JJ	16ff\JJ	.
4r	.	.	.	16gg\LL	16gg\LL	.
.	.	.	.	16ff\	16ff\	.
.	.	.	.	16ee\	16ee\	.
.	.	.	.	16dd\JJ	16dd\JJ	.
=68	=68	=68	=68	=68	=68	=68
4A\	2r	2r	2r	16cc#\LL	16cc#\LL	#
.	.	.	.	16gg\	16gg\	.
.	.	.	.	16ff\	16ff\	.
.	.	.	.	16ee\JJ	16ee\JJ	.
4AA/	.	.	.	8.eet\L	8.eet\L	.
.	.	.	.	16dd\Jk	16dd\Jk	.
8D\L	4A/	2ff#\	2ff#\	4dd\	4dd\	#
8d\	.	.	.	.	.	.
8c\	4a\	.	.	4ff#\	4ff#\	4+ 2
8C\J	.	.	.	.	.	.
=69	=69	=69	=69	=69	=69	=69
8B-\L	4.d\	(16gg\LL	(16gg\LL	(16gg\LL	(16gg\LL	6
.	.	16aa\JJ	16aa\JJ	16aa\JJ	16aa\JJ	.
8G\	.	4.bb-\)	4.bb-\)	4.bb-\)	4.bb-\)	.
8BB-\	.	.	.	.	.	6
8GG\J	8B-/	.	.	.	.	.
8C\L	4G/	2ee\	2ee\	2ee\	2ee\	.
8c\	.	.	.	.	.	.
8B-\	4g\	.	.	.	.	4 2
8BB-\J	.	.	.	.	.	.
=70	=70	=70	=70	=70	=70	=70
8A/L	4.c\	(16ff\LL	(16ff\LL	(16ff\LL	(16ff\LL	6
.	.	16gg\JJ	16gg\JJ	16gg\JJ	16gg\JJ	.
8F/	.	4.aa\)	4.aa\)	4.aa\)	4.aa\)	.
8AA/	.	.	.	.	.	6
8FF/J	8A/	.	.	.	.	.
8BB-\L	4F/	2dd\	2dd\	2dd\	2dd\	.
8B-\	.	.	.	.	.	.
8A\	4f\	.	.	.	.	4 2
8AA\J	.	.	.	.	.	.
=71	=71	=71	=71	=71	=71	=71
8G/L	4.B-/	(16ee-\LL	(16ee-\LL	(16ee-\LL	(16ee-\LL	b6
.	.	16ff\JJ	16ff\JJ	16ff\JJ	16ff\JJ	.
8E-/	.	4.gg\)	4.gg\)	4.gg\)	4.gg\)	.
8BB-/	.	.	.	.	.	6
8GG/J	8G/	.	.	.	.	.
8D\L	4f\	4b-\	4b-\	4b-\	4b-\	6
8d\	.	.	.	.	.	.
8c#\	4e\	[4a/	[4a/	[4a/	[4a/	6
8A\J	.	.	.	.	.	.
=72	=72	=72	=72	=72	=72	=72
8d\L	8f\L	8a\L]	8a\L]	8a\L]	8a\L]	.
8A\	8cc#\	8gg\	8gg\	8gg\	8gg\	#
8F\	8dd\	8ff\	8ff\	8ff\	8ff\	6
8C#\J	8e\J	8ee\J	8ee\J	8ee\J	8ee\J	6
8D\L	4f\	4b-\	4b-\	4b-\	4b-\	.
8d\	.	.	.	.	.	.
8c#\	4e\	[4a/	[4a/	[4a/	[4a/	6
8A\J	.	.	.	.	.	.
=73	=73	=73	=73	=73	=73	=73
8d\L	8f\L	8a\L]	8a\L]	8a\L]	8a\L]	.
8A\	8cc#\	8gg\	8gg\	8gg\	8gg\	.
8F\	8dd\	8ff\	8ff\	8ff\	8ff\	6
8C#\J	[8a\J	8ee\J	8ee\J	8ee\J	8ee\J	6
8D\L	8a\L]	16ff\LL	16ff\LL	16ff\LL	16ff\LL	.
.	.	16ee\	16ee\	16ee\	16ee\	.
8A\	8e\	16dd\	16dd\	16dd\	16dd\	#
.	.	16cc#\JJ	16cc#\JJ	16cc#\JJ	16cc#\JJ	.
8F\	8a\	8dd\L	8dd\L	8dd\L	8dd\L	6
8C#\J	8e\J	8a\J	8a\J	8a\J	8a\J	6
=74	=74	=74	=74	=74	=74	=74
8D\L	8F/L	4f/	4f/	4f/	4f/	.
8E\	8G/	.	.	.	.	.
8F\	8A/	[4e/	[4e/	[4e/	[4e/	6
8G\J	8B-/J	.	.	.	.	.
4A\	4.c#\	8e/L]	8e/L]	8e/L]	8e/L]	4
.	.	8g/	8g/	8g/	8g/	.
4AA/	.	8f/	8f/	8f/	8f/	#
.	8A/	8e/J	8e/J	8e/J	8e/J	.
=75	=75	=75	=75	=75	=75	=75
8D\L	8F/L	4f/	4f/	4f/	4f/	.
8E\	8G/	.	.	.	.	.
8F\	8A/	[4e/	[4e/	[4e/	[4e/	6
8G\J	8B-/J	.	.	.	.	.
4A\	4.c#\	8e/L]	8e/L]	8e/L]	8e/L]	4
.	.	8g/	8g/	8g/	8g/	.
4AA/	.	8f/	8f/	8f/	8f/	#
.	8A/	8e/J	8e/J	8e/J	8e/J	.
=76	=76	=76	=76	=76	=76	=76
8D\L	8A\L	8f/L	8f/L	8f/L	8f/L	.
8D\	8a\	8dd/	8dd/	8dd/	8dd/	.
8A\	8a\	8e/	8e/	8e/	8e/	4
8AA\J	8a\J	8cc#t/J	8cc#t/J	8cc#t/J	8cc#t/J	#
2D;\	2f;\	2dd;\	2dd;\	2dd;\	2dd;\	.
==|!	==|!	==|!	==|!	==|!	==|!	==|!
*-	*-	*-	*-	*-	*-	*-
!!!CDT: 1678/3/4/-1741/7/28
!!!OCY: Italia
!!!ODE: Count Wenzeslaus von Morzin of Bohemia; Count Wenceslas of Morzin
!!!ODT: 1725///
!!!OPC: Venezia; Venice
!!!AGN: concerto
!!!AST: baroque
!!!AMT: simple quadruple
!!!PPR: Michel-Charles Le Ce`ne
!!!PC#: Le Cene No. 521
!!!PDT: 1725///
!!!PPP: Amsterdam
!!!SCT: RV 236
!!!SMA1: The cooperation of the following libraries is gratefully acknowledged:
!!!SMA2: Saechsische Landesbibliothek, Dresden; Biblioteca Nazionale
!!!SMA3: Universitaria, Turin; Henry Watson Music Library, Manchester.
!!!YOR: New York: Dover Publications, Inc. 1995
!!!AIN: cello cemba viola violn
!!!EEV: 1.0
!!!RDT: 1994/5/5/
!!!YER: 1996/10/31/
!!!YEP: Center for Computer Assisted Research in the Humanities
!!!YEN: United States of America
!!!EFL: 3/3
!!!ENC: Edmund Correia, Jr.
!!!EED: Eleanor Selfridge-Field
